src/assets/logo.svg

<?xml version="1.0" encoding="UTF-8"?>
<svg width="145px" height="33px" viewBox="0 0 145 33" version="1.1" xmlns="http://www.w3.org/2000/svg" xmlns:xlink="http://www.w3.org/1999/xlink">
    <!-- Generator: Sketch 48.1 (47250) - http://www.bohemiancoding.com/sketch -->
    <title>logo</title>
    <desc>Created with Sketch.</desc>
    <defs></defs>
    <g id="Homepage-Copy-6" stroke="none" stroke-width="1" fill="none" fill-rule="evenodd" transform="translate(-156.000000, -16.000000)">
        <g id="logo" transform="translate(156.000000, 16.000000)" fill="#7749AC">
            <path d="M7.90442478,28.5447503 C3.53893152,28.5447503 0,24.584775 0,19.6998981 C0,14.8150211 3.53893152,10.8550459 7.90442478,10.8550459 C12.269918,10.8550459 15.8088496,14.8150211 15.8088496,19.6998981 C15.8088496,24.584775 12.269918,28.5447503 7.90442478,28.5447503 Z M7.90442478,25.4792049 C10.7391607,25.4792049 13.0371681,22.902971 13.0371681,19.7250255 C13.0371681,16.5470799 10.7391607,13.9708461 7.90442478,13.9708461 C5.06968889,13.9708461 2.77168142,16.5470799 2.77168142,19.7250255 C2.77168142,22.902971 5.06968889,25.4792049 7.90442478,25.4792049 Z" id="Combined-Shape"></path>
            <path d="M20.9415929,10.8550459 L24.8037664,10.8550459 C27.6031873,10.8550459 29.8725664,13.1244249 29.8725664,15.9238459 L29.8725664,16.5407821 C29.8725664,19.340203 27.6031873,21.6095821 24.8037664,21.6095821 L20.9415929,21.6095821 L20.9415929,28.5447503 L18.0159292,28.5447503 L18.0159292,10.8550459 L20.9415929,10.8550459 Z M20.9339291,13.7698267 L20.9339291,18.6948012 L24.433088,18.6948012 C25.7930821,18.6948012 26.8955752,17.5923081 26.8955752,16.232314 C26.8955752,14.8723198 25.7930821,13.7698267 24.433088,13.7698267 L20.9339291,13.7698267 Z" id="Combined-Shape"></path>
            <path d="M34.2867257,18.2119388 L42.4843211,18.2119388 L42.4843211,21.1376025 L34.2867257,21.1376025 L34.2867257,25.6496554 L42.4843211,25.6496554 L42.4843211,28.5753191 L31.4785107,28.5753191 L31.4785107,28.5447503 L31.3610619,28.5447503 L31.3610619,10.8550459 L31.4785107,10.8550459 L31.4785107,10.824477 L42.4843211,10.824477 L42.4843211,13.7501407 L34.2867257,13.7501407 L34.2867257,18.2119388 Z" id="Combined-Shape"></path>
            <path d="M55.7929204,19.8905915 L47.580531,15.6477327 L47.580531,28.5447503 L44.6548673,28.5447503 L44.6548673,11.936163 L44.7740257,11.9931367 L44.7740257,10.7588384 L55.7929204,16.4516535 L55.7929204,10.8550459 L58.7185841,10.8550459 L58.7185841,28.5447503 L55.7929204,28.5447503 L55.7929204,19.8905915 Z" id="Combined-Shape"></path>
            <path d="M105.015929,13.7501407 L105.015929,28.5447503 L102.090265,28.5447503 L102.090265,13.7501407 L97.2461147,13.7501407 L97.2461147,10.824477 L109.86008,10.824477 L109.86008,13.7501407 L105.015929,13.7501407 Z" id="Combined-Shape"></path>
            <path d="M117.894914,21.6095821 L114.152212,21.6095821 L114.152212,28.5447503 L111.226549,28.5447503 L111.226549,10.8550459 L114.152212,10.8550459 L118.065713,10.8550459 C120.865134,10.8550459 123.134513,13.1244249 123.134513,15.9238459 L123.134513,16.5407821 C123.134513,18.4113498 122.121261,20.0452598 120.613676,20.9235933 L124.623009,28.5447503 L121.543363,28.5447503 L117.894914,21.6095821 Z M114.152212,13.7699611 L114.152212,18.6949356 L117.651371,18.6949356 C119.011365,18.6949356 120.113859,17.5924425 120.113859,16.2324483 C120.113859,14.8724542 119.011365,13.7699611 117.651371,13.7699611 L114.152212,13.7699611 Z" id="Combined-Shape"></path>
            <rect id="Rectangle-4-Copy-12" x="125.59823" y="10.8550459" width="2.92566372" height="17.6897044"></rect>
            <path d="M137.508823,17.3448988 L141.822955,10.8550459 L144.953928,10.8550459 L139.074309,19.6998981 L144.953928,28.5447503 L141.822955,28.5447503 L137.508823,22.0548974 L133.19469,28.5447503 L130.063717,28.5447503 L135.943336,19.6998981 L130.063717,10.8550459 L133.19469,10.8550459 L137.508823,17.3448988 Z" id="Combined-Shape"></path>
            <g id="Group-4" transform="translate(63.132743, 0.000000)">
                <polygon id="Rectangle-2-Copy-5" transform="translate(12.430018, 4.329163) scale(1, -1) translate(-12.430018, -4.329163) " points="9.95752212 -3.63797881e-12 14.9025137 2.37647119 14.9025137 8.65832644 9.95752212 6.28185525"></polygon>
                <path d="M6.28185525,16.5011714 L6.28185525,33.0514088 L4.97379915e-14,29.8959468 L2.64560603e-15,13.4682977 L0,7.18644241 L14.8849558,14.3728848 L14.8849558,20.6547401 L6.28185525,16.5011714 Z" id="Combined-Shape" opacity="0.75"></path>
                <polygon id="Rectangle-2-Copy-3" transform="translate(26.561947, 24.385587) scale(1, -1) rotate(-270.000000) translate(-26.561947, -24.385587) " points="21.0821558 21.2446592 35.1972 21.2446592 31.9390832 27.5265144 17.9266938 27.5265144"></polygon>
                <polygon id="Rectangle-2-Copy-4" opacity="0.75" points="14.8849558 0 29.7699115 7.18644241 29.7699115 13.4682977 14.8849558 6.28185525"></polygon>
                <polygon id="Rectangle-2-Copy" transform="translate(22.327434, 13.920591) scale(1, -1) translate(-22.327434, -13.920591) " points="14.8849558 7.18644241 29.7699115 14.3728848 29.7699115 20.6547401 14.8849558 13.4682977"></polygon>
            </g>
        </g>
    </g>
</svg>

<svg xmlns="http://www.w3.org/2000/svg" width="145" height="33" viewBox="0 0 145 33">
    <g fill="#7749AC" fill-rule="evenodd">
        <path d="M7.904 28.545C3.54 28.545 0 24.585 0 19.7c0-4.885 3.539-8.845 7.904-8.845 4.366 0 7.905 3.96 7.905 8.845 0 4.885-3.54 8.845-7.905 8.845zm0-3.066c2.835 0 5.133-2.576 5.133-5.754 0-3.178-2.298-5.754-5.133-5.754-2.834 0-5.132 2.576-5.132 5.754 0 3.178 2.298 5.754 5.132 5.754zM20.942 10.855h3.862c2.8 0 5.069 2.27 5.069 5.069v.617c0 2.8-2.27 5.069-5.07 5.069h-3.861v6.935h-2.926v-17.69h2.926zm-.008 2.915v4.925h3.5a2.462 2.462 0 0 0 0-4.925h-3.5zM34.287 18.212h8.197v2.926h-8.197v4.512h8.197v2.925H31.48v-.03h-.118v-17.69h.118v-.03h11.005v2.925h-8.197v4.462zM55.793 19.89l-8.212-4.242v12.897h-2.926V11.936l.119.057V10.76l11.019 5.693v-5.597h2.926v17.69h-2.926V19.89zM105.016 13.75v14.795h-2.926V13.75h-4.844v-2.926h12.614v2.926h-4.844zM117.895 21.61h-3.743v6.935h-2.925v-17.69h6.839c2.8 0 5.069 2.27 5.069 5.069v.617a5.067 5.067 0 0 1-2.521 4.383l4.009 7.62h-3.08l-3.648-6.934zm-3.743-7.84v4.925h3.5a2.462 2.462 0 0 0 0-4.925h-3.5zM125.598 10.855h2.926v17.69h-2.926zM137.509 17.345l4.314-6.49h3.13l-5.879 8.845 5.88 8.845h-3.131l-4.314-6.49-4.314 6.49h-3.131l5.88-8.845-5.88-8.845h3.13l4.315 6.49zM73.09 8.658l4.945-2.376V0L73.09 2.376z"/>
        <path d="M69.415 16.501v16.55l-6.282-3.155V7.186l14.885 7.187v6.282L69.415 16.5z" opacity=".75"/>
        <path d="M92.836 29.865V15.75l-6.282 3.258v14.013z"/>
        <path d="M78.018 0l14.885 7.186v6.282L78.018 6.282z" opacity=".75"/>
        <path d="M78.018 20.655l14.885-7.187V7.186l-14.885 7.187z"/>
    </g>
</svg>
